dist/svgs/unicons/line/moneybag-alt.svg

<svg xmlns="http://www.w3.org/2000/svg" viewBox="0 0 24 24"><path d="M19 7h-3V6a3 3 0 00-3-3h-2a3 3 0 00-3 3v1H5a3 3 0 00-3 3v8a3 3 0 003 3h14a3 3 0 003-3v-8a3 3 0 00-3-3zm-9-1a1 1 0 011-1h2a1 1 0 011 1v1h-4zm-6 4a1 1 0 011-1h1a2 2 0 01-2 2zm1 9a1 1 0 01-1-1v-1a2 2 0 012 2zm15-1a1 1 0 01-1 1h-1a2 2 0 012-2zm0-3a4 4 0 00-4 4H8a4 4 0 00-4-4v-2a4 4 0 004-4h8a4 4 0 004 4zm0-4a2 2 0 01-2-2h1a1 1 0 011 1zm-8 0a3 3 0 103 3 3 3 0 00-3-3zm0 4a1 1 0 111-1 1 1 0 01-1 1z"/></svg>

<svg xmlns="http://www.w3.org/2000/svg" viewBox="0 0 24 24"><path d="M19,7H16V6a3,3,0,0,0-3-3H11A3,3,0,0,0,8,6V7H5a3,3,0,0,0-3,3v8a3,3,0,0,0,3,3H19a3,3,0,0,0,3-3V10A3,3,0,0,0,19,7ZM10,6a1,1,0,0,1,1-1h2a1,1,0,0,1,1,1V7H10ZM4,10A1,1,0,0,1,5,9H6a2,2,0,0,1-2,2Zm1,9a1,1,0,0,1-1-1V17a2,2,0,0,1,2,2Zm15-1a1,1,0,0,1-1,1H18a2,2,0,0,1,2-2Zm0-3a4,4,0,0,0-4,4H8a4,4,0,0,0-4-4V13A4,4,0,0,0,8,9h8a4,4,0,0,0,4,4Zm0-4a2,2,0,0,1-2-2h1a1,1,0,0,1,1,1Zm-8,0a3,3,0,1,0,3,3A3,3,0,0,0,12,11Zm0,4a1,1,0,1,1,1-1A1,1,0,0,1,12,15Z"/></svg>
